build/images/g24.svg

<svg width="138" height="138" viewBox="0 0 138 138" fill="none" xmlns="http://www.w3.org/2000/svg">
<circle cx="69" cy="69" r="69" fill="#76BD5E"/>
<g clip-path="url(#clip0)">
<path d="M107 63.2982C107 53.8779 103.345 45.0137 96.7008 38.3416C90.0721 31.6696 81.2444 28 71.8471 28C62.4499 28 53.6379 31.6696 46.9934 38.3416C42.5479 42.8056 39.4313 48.2544 37.8651 54.2115H33.5145C32.6286 54.2115 31.8217 54.704 31.4104 55.4983C30.9991 56.2926 31.0624 57.2298 31.5686 57.9606C33.6253 60.8995 34.5745 64.4102 34.3055 67.9527C34.1157 68.0957 33.9417 68.2705 33.8151 68.477L28.2464 76.5152C25.2563 80.8202 25.2721 86.6027 28.2938 90.8759L29.6385 92.7822C32.0116 96.15 33.0874 100.28 32.6602 104.395C32.5969 105.062 32.8026 105.729 33.2614 106.237C33.7044 106.746 34.353 107.032 35.0174 107.032H83.918C92.9198 107.032 100.245 99.6767 100.245 90.6376V85.2841C100.245 84.9505 100.213 84.6169 100.165 84.2992C104.595 78.2308 107 70.9552 107 63.2982ZM60.6305 58.9773C59.5073 61.6461 58.9694 64.5214 59.0801 67.4444H39.0674C39.1624 64.5214 38.6403 61.6461 37.5171 58.9773H60.6305ZM66.753 55.4983C66.3417 54.704 65.5348 54.2115 64.6489 54.2115H56.0585C59.2067 48.7309 65.1077 45.0296 71.8471 45.0296C81.8772 45.0296 90.0405 53.2266 90.0405 63.2982C90.0405 70.0179 86.4176 75.8956 81.0229 79.0728H71.2934C70.9454 78.1832 70.4866 77.3095 69.917 76.4993L64.3483 68.4611C64.2059 68.2546 64.0477 68.0957 63.8579 67.9369C63.5889 64.3943 64.5381 60.8836 66.5948 57.9447C67.101 57.2298 67.1485 56.2767 66.753 55.4983ZM37.4696 102.25C37.4063 97.8816 36.0299 93.6242 33.4987 90.034L32.154 88.1277C30.2872 85.4748 30.2714 81.9005 32.1223 79.2317L36.995 72.2101H61.1842L65.9461 79.0728H53.4797C50.0784 79.0728 47.3256 81.8528 47.3256 85.2524V90.6059C47.3256 95.1492 49.1766 99.2636 52.1667 102.25H37.4696ZM83.8864 102.25H63.6364C57.9253 102.25 53.1633 98.0722 52.2141 92.6075H95.2928C94.3594 98.0722 89.5975 102.25 83.8864 102.25ZM95.4669 87.8418H52.0401V85.2524C52.0401 84.474 52.6729 83.8226 53.4639 83.8226H94.0588C94.834 83.8226 95.4827 84.4581 95.4827 85.2524L95.4669 87.8418ZM94.0588 79.0728H88.5534C92.4135 74.9425 94.7866 69.3984 94.7866 63.2982C94.7866 50.6055 84.5034 40.2638 71.8471 40.2638C62.4024 40.2638 54.2866 46.0145 50.7745 54.2115H42.8169C46.677 41.7889 58.2417 32.7657 71.8471 32.7657C88.6166 32.7657 102.254 46.4593 102.254 63.2982C102.254 69.4619 100.419 75.1967 97.2862 79.9942C96.3528 79.4064 95.2454 79.0728 94.0588 79.0728Z" fill="white"/>
</g>
<defs>
<clipPath id="clip0">
<rect width="81" height="79" fill="white" transform="translate(26 28)"/>
</clipPath>
</defs>
</svg>

<svg width="138" height="138" fill="none" xmlns="http://www.w3.org/2000/svg"><circle cx="69" cy="69" r="69" fill="#76BD5E"/><g clip-path="url(#clip0)"><path d="M107 63.298c0-9.42-3.655-18.284-10.3-24.956C90.073 31.67 81.245 28 71.848 28s-18.21 3.67-24.854 10.342c-4.445 4.464-7.562 9.912-9.128 15.87h-4.35c-.886 0-1.693.492-2.105 1.286a2.379 2.379 0 00.159 2.463 15.342 15.342 0 012.737 9.992c-.19.143-.364.317-.49.524l-5.57 8.038c-2.99 4.305-2.974 10.088.048 14.36l1.345 1.907a17.104 17.104 0 013.021 11.613 2.396 2.396 0 00.601 1.842 2.336 2.336 0 001.756.795h48.901c9.002 0 16.327-7.355 16.327-16.394v-5.354c0-.334-.032-.667-.08-.985 4.43-6.068 6.835-13.344 6.835-21zm-46.37-4.32a19.846 19.846 0 00-1.55 8.466H39.067a20.086 20.086 0 00-1.55-8.467H60.63zm6.123-3.48a2.365 2.365 0 00-2.104-1.286h-8.59c3.148-5.481 9.049-9.182 15.788-9.182 10.03 0 18.194 8.197 18.194 18.268 0 6.72-3.623 12.598-9.018 15.775h-9.73a12.235 12.235 0 00-1.376-2.574l-5.569-8.038a2.568 2.568 0 00-.49-.524 15.342 15.342 0 012.737-9.992c.506-.715.553-1.668.158-2.447zM37.47 102.25a21.74 21.74 0 00-3.971-12.216l-1.345-1.906a7.793 7.793 0 01-.032-8.896l4.873-7.022h24.19l4.761 6.863H53.48c-3.402 0-6.154 2.78-6.154 6.18v5.353c0 4.543 1.85 8.658 4.84 11.644H37.47zm46.416 0h-20.25c-5.71 0-10.473-4.178-11.422-9.642h43.079c-.934 5.464-5.696 9.642-11.407 9.642zm11.58-14.408H52.04v-2.59c0-.778.633-1.43 1.424-1.43h40.595c.775 0 1.424.636 1.424 1.43l-.016 2.59zm-1.407-8.77h-5.506c3.86-4.13 6.234-9.674 6.234-15.774 0-12.693-10.284-23.034-22.94-23.034-9.445 0-17.56 5.75-21.072 13.947h-7.958c3.86-12.422 15.425-21.445 29.03-21.445 16.77 0 30.407 13.693 30.407 30.532a30.443 30.443 0 01-4.968 16.696 6.033 6.033 0 00-3.227-.921z" fill="#fff"/></g><defs><clipPath id="clip0"><path fill="#fff" transform="translate(26 28)" d="M0 0h81v79H0z"/></clipPath></defs></svg>
